X:468
T: "Trauer"
N: Z1148
O: Europa, Mitteleuropa, Deutschland, Rhein
R: Liebes - Lied, Abschieds - Lied
M: 3/4
L: 1/4
K: Eb
 | EGB | BGB | cBA | AGG
EGB | BGB | cBA | G2z
cec | BAG | AcA | AGG
cec | BeG | cBD | E2z

